X: 32
T:A Touch Under The Blankett. WI.032
T:Touch Under The Blankett,A . WI.032
M:C|
Q:180
S:Wm Irwin, 1838 MS, AGG's Transcription
R:Reel
O:England
A:Lake District
Z:vmp.Chris Partington.2005
K:A
d|ceAd ceec|dfBf dffd|ceAe ceec|dfed c2A:|!
|:d|ce e(f/g/) afec|dfBf dfBf|ce ef/g/ afec|dfed c2A:|]
